icons/svg/16x16/notifications/outline.svg

<svg xmlns="http://www.w3.org/2000/svg" width="16" height="16" viewBox="0 0 16 16">
  <path fill-rule="evenodd" d="M4.9648,9.4355 C5.7318,9.7405 6.7508,9.9995 7.9998,9.9995 C9.2488,9.9995 10.2678,9.7405 11.0348,9.4355 C10.2998,8.1665 9.9998,6.8015 9.9998,4.9995 C9.9998,3.9155 9.0838,2.9995 7.9998,2.9995 C6.9158,2.9995 5.9998,3.9155 5.9998,4.9995 C5.9998,6.8015 5.6998,8.1665 4.9648,9.4355 L4.9648,9.4355 Z M7.9998,11.9995 C5.1488,11.9995 2.9998,10.8635 1.9998,9.9995 C3.5588,8.4035 3.9998,7.1615 3.9998,4.9995 C3.9998,2.8385 5.7908,0.9995 7.9998,0.9995 C10.2088,0.9995 11.9998,2.8385 11.9998,4.9995 C11.9998,7.1615 12.4408,8.4035 13.9998,9.9995 C12.9998,10.8635 10.8508,11.9995 7.9998,11.9995 L7.9998,11.9995 Z M7.9998,12.9995 L9.9998,12.9995 C9.9998,14.1045 9.1048,14.9995 7.9998,14.9995 C6.8958,14.9995 5.9998,14.1045 5.9998,12.9995 L7.9998,12.9995 Z"/>
</svg>

<svg width="16" height="16" fill="none" xmlns="http://www.w3.org/2000/svg">
  <path fill-rule="evenodd" clip-rule="evenodd" d="M4.965 9.435A8.178 8.178 0 008 10a8.178 8.178 0 003.035-.564C10.3 8.166 10 6.801 10 5c0-1.083-.916-2-2-2s-2 .917-2 2c0 1.803-.3 3.167-1.035 4.436zM8 12c-2.851 0-5-1.136-6-2 1.559-1.596 2-2.838 2-5 0-2.16 1.79-4 4-4 2.209 0 4 1.84 4 4 0 2.163.44 3.404 2 5-1 .864-3.15 2-6 2zm0 1h2a2 2 0 11-4 0h2z" fill="#000"/>
</svg>
